X:1
T:Ihr Christen, auserkoren
T:Johann Georg Herzog
T:Georg Werner
T:Ihr Christen, auserkoren
T:CPDL - Creative Commons Attribution Non Commercial 3.0
T:CPDL - Creative Commons Attribution Non Commercial 3.0
C:Johann Georg Herzog
Z:Georg Werner
Z:CPDL - Creative Commons Attribution Non Commercial 3.0
%%score [ ( 1 2 ) ( 3 4 ) ]
L:1/8
Q:1/4=90
M:4/4
K:F
V:1 treble nm="Sopran\nAlt"
V:2 treble 
V:3 bass nm="Tenor\nBass"
V:4 bass 
V:1
"^Fröhlich"!p! F2 | A2 A2 G2 AG | F4 !breath!F2!<(! A2!<)! | c2 c2!>(! B2!>)! A2 | G4 z2!p! F2 | %5
w: 1.~Ihr|Chris- ten aus- er- *|ko- ren, hört|gu- te neu- e|Mär: der|
w: 2.~So|sin- gen sie mit *|Schal- le: ihr|Chris- ten ins- ge-|mein, freut|
w: 3.~Kein|Mensch sich ja be- *|trü- be, denn|die- ses Kin- de-|lein euch|
 A2 A2 G2 AG |!<(! F4 !breath!F2!<)! A2 | c2 c2!>(! B2 A2!>)! | G4 z2 G2 | c2 =B2!<(! c2 d2!<)! | %10
w: Hei- land ist ge- *|bo- ren, er|kommt auf Er- den|her; des|freu- en sich dort|
w: euch von Her- zen *|al- le ob|die- sem Kin- de-|lein! Euch,|euch ist es ge-|
w: brin- get Fried' und *|Lie- be; was|wollt ihr trau- rig|sein? Den|Him- mel er dem|
 e4 !breath!c2!f! d2 | e2 c2 d3 c | c4 z2 |!p! A2 | c2 A2 _B2 c2 | !>!A4 !breath!F2 G2 | %16
w: o- ben der|heil'- gen En- gel|Schar,|die|Gott, den Va- ter,|lo- ben jetzt|
w: ge- ben, euch|ist das Heil be-|reit't,|dass|ihr bei Gott sollt|le- ben in|
w: schen- ket, der|an ihn glau- bet|fest;|an|die- sen Schatz ge-|den- ket, er|
!<(! A2 c2 d2!<)! g2 | !breath!e4!f! z2 e2 | f2 f2 f2 de |!>(! (f3 e/d/!>)! !breath!c2)!p! Ac | %20
w: und fort im- mer-|dar, *|Gott, den Va- ter, *|lo- * * ben jetzt *|
w: ste- ter Se- lig-|keit, *|ihr bei Gott sollt *|le- * * ben in *|
w: ist der al- ler-|best', *|die- sen Schatz ge- *|den- * * ket, er *|
 B2 A2 G2 G2 | F8- | F8- | !fermata!F6 |] %24
w: und fort im- mer-|dar.|_||
w: ste- ter Se- lig-|keit.|_||
w: ist der al- ler-|best'.|_||
V:2
 C2 | F2 F2 E2 E2 | D4 C2 F2 | A2 F2 F2 F2 | E4 x2 C2 | F2 F2 E2 E2 | D4 C2 F2 | A2 F2 F2 F2 | %8
w: ||||||||
w: ||||||||
w: ||||||||
 E2!mf! D2 E4- | E2 G2 G2 G2 | G4 A2 G2 | G2 E2 G2 G2 | E4 x2 | F2 | A2 F2 F2 G2 | F4 C2 E2 | %16
w: * des freu-|\- en * *|||||||
w: * Euch, euch|_ ist * *|||||||
w: * Den Him-|\- mel * *|||||||
 F2 A2 B2 B2 | G4 A4 | A2 B2 A2 FG | (A4 A2) FA | GF F2 F2 E2 | F6 C2 | D3 C B,2 D2 | C6 |] %24
w: |* die|||* * * im- mer-|dar, jetzt|und fort im- mer-|dar.|
w: |* dass|||* * * Se- lig-|keit, in|ste- ter Se- lig-|keit.|
w: |* an|||* * * al- ler-|best', er|ist der al- ler-|best'.|
V:3
!p! A,2 | C2 C2 C2 A,2 | (A,2 B,2) !breath!A,2!<(! C2!<)! | C2 C2!>(! D2!>)! C2 | C4 z2!p! A,2 | %5
w: |||||
w: |||||
w: |||||
 C2 C2 C2 A,2 |!<(! (A,2 B,2) !breath!A,2!<)! C2 | C2 C2!>(! D2 C2!>)! | C2!mf! =B,2 C4- | %9
w: ||||
w: ||||
w: ||||
 C2 D2!<(! E2 D2!<)! | C4 !breath!C2!f! =B,2 | C2 C2 C2 =B,2 | C4 z2 |!p! C2 | C2 C2 D2 C2 | %15
w: ||||||
w: ||||||
w: ||||||
 !>!C4 !breath!A,2 C2 |!<(! C2 C2 B,2!<)! D2 | !breath!E4!f! E4 | D2 D2 =C2 B,2 | %19
w: ||||
w: ||||
w: ||||
!>(! (C4!>)! !breath!C2)!p! C2 | D2 C2 C2 C2 | A,4!<(! A,4!<)! | B,3 C!>(! D2!>)! B,2 | %23
w: |* * im- *|||
w: |* * Se- *|||
w: |* * al- *|||
 !fermata!A,6 |] %24
w: |
w: |
w: |
V:4
 F,2 | F,2 F,2 C,2 C,2 | (D,3 E,) F,2 F,2 | F,2 A,2 B,2 F,2 | C,4 x2 F,2 | F,2 F,2 C,2 C,2 | %6
w: ||||||
w: ||||||
w: ||||||
 (D,3 E,) F,2 F,2 | F,2 A,2 B,2 F,2 | C,2 z2 z2!mf! C,2 | C2 G,2 C2 =B,2 | C4 F,2 F,2 | %11
w: ||* des|freu- en * *||
w: ||* Euch,|euch ist * *||
w: ||* Den|Him- mel * *||
 E,2 A,2 G,2 G,2 | C,4 x2 | F,2 | F,2 F,2 D,2 E,2 | F,4 F,2 C,2 | F,2 F,2 B,3 A,/G,/ | C4 ^C4 | %18
w: |||||||
w: |||||||
w: |||||||
 D2 B,2 F,2 B,G, | (F,4 F,2) F,2 | B,2 F,2 C2 C,2 | F,8 | B,,6 B,,2 | [F,,F,]6 |] %24
w: ||* * * mer-|dar,|im- mer-|dar.|
w: ||* * * lig-|keit,|Se- lig-|keit.|
w: ||* * * ler-|best',|al- ler-|best'.|

